!!!COM: Hugo Wolf
!!!CNT: Deutscher
!!!TXO: Deutsche 
!!!OTL: Der Glu2cksritter
!!!ODT: 1888/09/16
!!!ONM: No. 10
!!!LYR: Joseph von Eichendorff
!!!ENC: Brian Bice
!!!YOR: 45 Songs on Poems of Goethe and Eichendorff, Dover Publications, 1995
!!NB: Vocal melody and text only encoded.
**kern	**silbe
*clefG2	*
*k[]	*
*M4/8	*
=1	=1
{8cc	{Wenn
8dd	For-
(ccq	-tu-
ddq	|
8.ee)	|
16dd	-na
=2	=2
8.cc	spro2-
(32b	-de
32a)	|
4g#	tut,
=3	=3
8.a	lass'
(32b	ich
32cc)	|
8b	sie
8b	in
=4	=4
4e}	Ruh',}
4r	.
=5	=5
{8.a	{sin-
16cc	-ge
8cc	recht
(16a	und
16f)	|
=6	=6
8c	trin-
8b-	-ke
4a	gut,
=7	=7
8a	und
8cc	For-
8cc	-tu-
(16a	-na
16f)	|
=8	=8
8d	kriegt
8dd	auch
4cc#	Mut,
=9	=9
8b-	setzt
8b-	sich
8ee	mit
(16dd	da-
16cc#)	|
=10	=10
4dd}	-zu.}
4r	.
=13	=13
{8bn	{Doch
8a	ich
8g	geb'
8f	mir
=14	=14
8e	kei-
(16d	-ne
16f)	|
4e	Mu2h':
=15	=15
8g#	"He,
(16b	noch
16ee)	|
8.ff#	ei-
16dd#	-ne
=16	=16
4ee}	her!"}
4r	.
=17	=17
{8.a	{kehr'
16cc	den
8cc	Ru2k-
8f	-ken
=18	=18
8g	ge-
8b-	-gen
4a	sie,
=19	=19
8a	lass'
8cc#	hoch
8cc#	le-
8f#	-ben
=20	=20
(16g#	die
16a)	|
(16b	und
16cc#)	|
4dd	die
=21	=21
4r	.
8.d	das
16d	ver-
=22	=22
8d	-driesst
8d	sie
[4a	sehr
=23	=23
4a]}	|}
4r	.
=25	=25
{8gn	{und
8gn	bald
8gn	ru2ckt
8f#	sie
=26	=26
8g	sacht
8a	zu
4b-	mir:
=27	=27
8d	"Hast
8f#	du
8g	de-
8bn	-ren
=28	=28
[2cc#	mehr?"
=29	=29
2cc#]}	|}
=31	=31
{8.b	{"Wie
16dd	Sie
8dd	seh'n,
(16b	drei
16g)	|
=32	=32
8d	Kan-
8cc	-nen
4b	schier,
=33	=33
8b	und
8dd	das
8.dd	lau-
(32b	-ter
32g)	|
=34	=34
8e	Kle-
8ee	-be-
4dd#	-bier!
=35	=35
4r	.
8g	'swird
8g	mir
=36	=36
8ee	gar
8dd	nicht
4cc#}	schwer."}
=39	=39
{8b	{Drauf
8a	sie
8g#	zu
(16f#	mir
16e)	|
=40	=40
8a	la2-
8cc	-chelt
4dd#	fein:
=41	=41
8b	"Bist
8ee	ein
8.ff#	gan-
16dd#	-zer
=42	=42
4ee}	Kerl!"}
4r	.
=43	=43
{8f	{ruft
8f	den
(16a	Kell-
16b-)	|
8cc	-ner,
=44	=44
8cc	schreit
(16dd	nach
16ee)	|
4ff	Wein,
=45	=45
8a	trinkt
8cc#	mir
8cc#	zu
8f#	und
=46	=46
(16g#	schenkt
16a)	|
(16b	mir
16cc#)	|
4dd	ein,
=47	=47
8cc#	ech-
(16ee	-te
16dd)	|
8cc#	Blum'
(16ee	und
16dd)	|
=48	=48
4.cc#}	Perl'.}
8r	.
=51	=51
{8cc	{Sie
8cc	be-
8ee	-zah-
8e	-let
=52	=52
8f	Wein
8a	und
4cc	Bier,
=53	=53
8c	und
8a	ich,
8.a	wie-
(32g#	-der
32f#)	|
=54	=54
2b}	gut,}
=55	=55
{8.cc	{fu2h-
16g	-re
8cc	sie
8ee	am
=56	=56
8dd	Arm
8ff	mit
4ee	mir
=57	=57
8cc	aus
8g	dem
8cc	Haus
8ee	wie'n
=58	=58
(16dd	Ka-
16cc)	|
(16b	-va-
16a)	|
4g#	-lier,
=59	=59
4r	.
[4c	al-
=60	=60
8c]	|
8c	-les
[4cc	zieht
=61	=61
8cc]	|
(16b	den
16a)	|
[4g	Hut.
=62	=62
4g]}	|}
4r	.
*-	*-
